static/img/kroki/9894373f75afdb5ba22c87ac8d974c3e.svg

<?xml version="1.0" encoding="us-ascii" standalone="no"?><svg xmlns="http://www.w3.org/2000/svg" xmlns:xlink="http://www.w3.org/1999/xlink" contentStyleType="text/css" height="374px" preserveAspectRatio="none" style="width:370px;height:374px;" version="1.1" viewBox="0 0 370 374" width="370px" zoomAndPan="magnify"><defs/><g><!--class aws_resource--><g id="elem_aws_resource"><rect codeLine="23" fill="#3D176E" height="39.7891" id="aws_resource" rx="2.5" ry="2.5" style="stroke:#000D19;stroke-width:0.5;" width="155" x="7" y="167.79"/><ellipse cx="22" cy="187.6845" fill="#ADD1B2" rx="11" ry="11" style="stroke:#181818;stroke-width:1.0;"/><path d="M24.9688,193.3252 Q24.3906,193.622 23.75,193.7627 Q23.1094,193.9189 22.4063,193.9189 Q19.9063,193.9189 18.5781,192.2783 Q17.2656,190.622 17.2656,187.497 Q17.2656,184.372 18.5781,182.7158 Q19.9063,181.0595 22.4063,181.0595 Q23.1094,181.0595 23.75,181.2158 Q24.4063,181.372 24.9688,181.6689 L24.9688,184.3877 Q24.3438,183.8095 23.75,183.5439 Q23.1563,183.2627 22.5313,183.2627 Q21.1875,183.2627 20.5,184.3408 Q19.8125,185.4033 19.8125,187.497 Q19.8125,189.5908 20.5,190.6689 Q21.1875,191.7314 22.5313,191.7314 Q23.1563,191.7314 23.75,191.4658 Q24.3438,191.1845 24.9688,190.6064 L24.9688,193.3252 Z " fill="#000000"/><text fill="#D9B8FF" font-family="Helvetica" font-size="17" lengthAdjust="spacing" textLength="113" x="41" y="193.5698">aws_resource</text></g><!--class aws_route53_resource_record_set--><g id="elem_aws_route53_resource_record_set"><rect codeLine="26" fill="#3D176E" height="39.7891" id="aws_route53_resource_record_set" rx="2.5" ry="2.5" style="stroke:#000D19;stroke-width:0.5;" width="326" x="18.5" y="328.58"/><ellipse cx="33.5" cy="348.4745" fill="#ADD1B2" rx="11" ry="11" style="stroke:#181818;stroke-width:1.0;"/><path d="M36.4688,354.1152 Q35.8906,354.412 35.25,354.5527 Q34.6094,354.7089 33.9063,354.7089 Q31.4063,354.7089 30.0781,353.0683 Q28.7656,351.412 28.7656,348.287 Q28.7656,345.162 30.0781,343.5058 Q31.4063,341.8495 33.9063,341.8495 Q34.6094,341.8495 35.25,342.0058 Q35.9063,342.162 36.4688,342.4589 L36.4688,345.1777 Q35.8438,344.5995 35.25,344.3339 Q34.6563,344.0527 34.0313,344.0527 Q32.6875,344.0527 32,345.1308 Q31.3125,346.1933 31.3125,348.287 Q31.3125,350.3808 32,351.4589 Q32.6875,352.5214 34.0313,352.5214 Q34.6563,352.5214 35.25,352.2558 Q35.8438,351.9745 36.4688,351.3964 L36.4688,354.1152 Z " fill="#000000"/><text fill="#D9B8FF" font-family="Helvetica" font-size="17" lengthAdjust="spacing" textLength="284" x="52.5" y="354.3598">aws_route53_resource_record_set</text></g><!--class dns_record_set--><g id="elem_dns_record_set"><rect codeLine="29" fill="#3D176E" height="39.7891" id="dns_record_set" rx="2.5" ry="2.5" style="stroke:#000D19;stroke-width:0.5;" width="166" x="197.5" y="167.79"/><ellipse cx="212.5" cy="187.6845" fill="#ADD1B2" rx="11" ry="11" style="stroke:#181818;stroke-width:1.0;"/><path d="M215.4688,193.3252 Q214.8906,193.622 214.25,193.7627 Q213.6094,193.9189 212.9063,193.9189 Q210.4063,193.9189 209.0781,192.2783 Q207.7656,190.622 207.7656,187.497 Q207.7656,184.372 209.0781,182.7158 Q210.4063,181.0595 212.9063,181.0595 Q213.6094,181.0595 214.25,181.2158 Q214.9063,181.372 215.4688,181.6689 L215.4688,184.3877 Q214.8438,183.8095 214.25,183.5439 Q213.6563,183.2627 213.0313,183.2627 Q211.6875,183.2627 211,184.3408 Q210.3125,185.4033 210.3125,187.497 Q210.3125,189.5908 211,190.6689 Q211.6875,191.7314 213.0313,191.7314 Q213.6563,191.7314 214.25,191.4658 Q214.8438,191.1845 215.4688,190.6064 L215.4688,193.3252 Z " fill="#000000"/><text fill="#D9B8FF" font-family="Helvetica" font-size="17" lengthAdjust="spacing" textLength="124" x="231.5" y="193.5698">dns_record_set</text></g><!--class resource--><g id="elem_resource"><rect codeLine="32" fill="#3D176E" height="39.7891" id="resource" rx="2.5" ry="2.5" style="stroke:#000D19;stroke-width:0.5;" width="113" x="125" y="7"/><ellipse cx="140" cy="26.8945" fill="#ADD1B2" rx="11" ry="11" style="stroke:#181818;stroke-width:1.0;"/><path d="M142.9688,32.5352 Q142.3906,32.832 141.75,32.9727 Q141.1094,33.1289 140.4063,33.1289 Q137.9063,33.1289 136.5781,31.4883 Q135.2656,29.832 135.2656,26.707 Q135.2656,23.582 136.5781,21.9258 Q137.9063,20.2695 140.4063,20.2695 Q141.1094,20.2695 141.75,20.4258 Q142.4063,20.582 142.9688,20.8789 L142.9688,23.5977 Q142.3438,23.0195 141.75,22.7539 Q141.1563,22.4727 140.5313,22.4727 Q139.1875,22.4727 138.5,23.5508 Q137.8125,24.6133 137.8125,26.707 Q137.8125,28.8008 138.5,29.8789 Q139.1875,30.9414 140.5313,30.9414 Q141.1563,30.9414 141.75,30.6758 Q142.3438,30.3945 142.9688,29.8164 L142.9688,32.5352 Z " fill="#000000"/><text fill="#D9B8FF" font-family="Helvetica" font-size="17" lengthAdjust="spacing" textLength="71" x="159" y="32.7798">resource</text></g><!--reverse link resource to aws_resource--><g id="link_resource_aws_resource"><path codeLine="35" d="M160.418,62.4116 C141.778,92.9316 114.91,136.9 96.24,167.46 " fill="none" id="resource-backto-aws_resource" style="stroke:#FFAF37;stroke-width:2.0;"/><polygon fill="none" points="169.8,47.05,155.2975,59.2842,165.5385,65.5389,169.8,47.05" style="stroke:#FFAF37;stroke-width:2.0;"/></g><!--reverse link aws_resource to aws_route53_resource_record_set--><g id="link_aws_resource_aws_route53_resource_record_set"><path codeLine="36" d="M105.582,223.2016 C124.222,253.7216 151.09,297.69 169.76,328.25 " fill="none" id="aws_resource-backto-aws_route53_resource_record_set" style="stroke:#FFAF37;stroke-width:2.0;"/><polygon fill="none" points="96.2,207.84,100.4615,226.3289,110.7025,220.0742,96.2,207.84" style="stroke:#FFAF37;stroke-width:2.0;"/></g><!--reverse link dns_record_set to aws_route53_resource_record_set--><g id="link_dns_record_set_aws_route53_resource_record_set"><path codeLine="37" d="M259.0362,223.1141 C240.0062,253.6341 212.54,297.69 193.48,328.25 " fill="none" id="dns_record_set-backto-aws_route53_resource_record_set" style="stroke:#FFAF37;stroke-width:2.0;"/><polygon fill="none" points="268.56,207.84,253.9449,219.9395,264.1276,226.2887,268.56,207.84" style="stroke:#FFAF37;stroke-width:2.0;"/></g><!--reverse link resource to dns_record_set--><g id="link_resource_dns_record_set"><path codeLine="38" d="M202.9638,62.3241 C221.9938,92.8441 249.46,136.9 268.52,167.46 " fill="none" id="resource-backto-dns_record_set" style="stroke:#FFAF37;stroke-width:2.0;"/><polygon fill="none" points="193.44,47.05,197.8724,65.4987,208.0551,59.1495,193.44,47.05" style="stroke:#FFAF37;stroke-width:2.0;"/></g><!--SRC=[ZPBDRi8m48JlVWfBd2D18ngGUg58LNj1LUaT6NiDLX8xsdMAwC-xDvGMEGw1tkoTppkpAs-D0WvbvVUyX78DI8noOok1ekGpHBURky8X7sWjT9h5ueEp_Ygm42NmHoZUm1ifOk9rQsHkWOZV1DAzaFa6NMtLiRr7OQcHmFg0cXU2QEOzcdNj8GYZfkk9rZ4PDnsaQfJTGWTpg01_aU5mg4RJ6BbgTN7k4x4qxy17uT8MpaCdPiVYXxgOya048Jk3_kcz6P-5KiPk-3YelHmpeGLirPTReTpkG6jHK6X37X2StrSmxqm5qudIsLdugGzcyh0wBdQqGY1NemJ-mTXNM7VDLnYd9xqvo6PLAm8VeifIZz9kVBhTVIP9qd9chHY1tf-0HRR_UnHvj7kmRm00]--></g></svg>

<svg xmlns="http://www.w3.org/2000/svg" width="370" height="374" viewBox="0 0 370 374"><rect width="155" height="39.789" x="7" y="167.79" fill="#3D176E" rx="2.5" ry="2.5" style="stroke:#000d19;stroke-width:.5"/><circle cx="22" cy="187.685" r="11" fill="#ADD1B2" style="stroke:#181818;stroke-width:1"/><path d="M24.969 193.325q-.578.297-1.219.438-.64.156-1.344.156-2.5 0-3.828-1.64-1.312-1.657-1.312-4.782t1.312-4.781q1.328-1.656 3.828-1.656.703 0 1.344.156.656.156 1.219.453v2.719q-.625-.578-1.219-.844-.594-.281-1.219-.281-1.343 0-2.031 1.078-.687 1.062-.687 3.156t.687 3.172q.688 1.062 2.031 1.062.625 0 1.219-.265.594-.281 1.219-.86z"/><text x="41" y="193.57" fill="#D9B8FF" font-family="Helvetica" font-size="17" textLength="113">aws_resource</text><rect width="326" height="39.789" x="18.5" y="328.58" fill="#3D176E" rx="2.5" ry="2.5" style="stroke:#000d19;stroke-width:.5"/><circle cx="33.5" cy="348.474" r="11" fill="#ADD1B2" style="stroke:#181818;stroke-width:1"/><path d="M36.469 354.115q-.578.297-1.219.438-.64.156-1.344.156-2.5 0-3.828-1.64-1.312-1.657-1.312-4.782t1.312-4.781q1.328-1.656 3.828-1.656.703 0 1.344.156.656.156 1.219.453v2.719q-.625-.579-1.219-.844-.594-.281-1.219-.281-1.343 0-2.031 1.078-.687 1.062-.687 3.156t.687 3.172q.688 1.062 2.031 1.062.625 0 1.219-.265.594-.281 1.219-.86z"/><text x="52.5" y="354.36" fill="#D9B8FF" font-family="Helvetica" font-size="17" textLength="284">aws_route53_resource_record_set</text><rect width="166" height="39.789" x="197.5" y="167.79" fill="#3D176E" rx="2.5" ry="2.5" style="stroke:#000d19;stroke-width:.5"/><circle cx="212.5" cy="187.685" r="11" fill="#ADD1B2" style="stroke:#181818;stroke-width:1"/><path d="M215.469 193.325q-.578.297-1.219.438-.64.156-1.344.156-2.5 0-3.828-1.64-1.312-1.657-1.312-4.782t1.312-4.781q1.328-1.656 3.828-1.656.703 0 1.344.156.656.156 1.219.453v2.719q-.625-.578-1.219-.844-.594-.281-1.219-.281-1.344 0-2.031 1.078-.687 1.062-.687 3.156t.687 3.172q.688 1.062 2.031 1.062.625 0 1.219-.265.594-.281 1.219-.86z"/><text x="231.5" y="193.57" fill="#D9B8FF" font-family="Helvetica" font-size="17" textLength="124">dns_record_set</text><rect width="113" height="39.789" x="125" y="7" fill="#3D176E" rx="2.5" ry="2.5" style="stroke:#000d19;stroke-width:.5"/><circle cx="140" cy="26.895" r="11" fill="#ADD1B2" style="stroke:#181818;stroke-width:1"/><path d="M142.969 32.535q-.578.297-1.219.438-.64.156-1.344.156-2.5 0-3.828-1.64-1.312-1.657-1.312-4.782t1.312-4.781q1.328-1.656 3.828-1.656.703 0 1.344.156.656.156 1.219.453v2.719q-.625-.578-1.219-.844-.594-.281-1.219-.281-1.344 0-2.031 1.078-.687 1.062-.687 3.156t.687 3.172q.688 1.062 2.031 1.062.625 0 1.219-.265.594-.281 1.219-.86z"/><text x="159" y="32.78" fill="#D9B8FF" font-family="Helvetica" font-size="17" textLength="71">resource</text><path fill="none" d="M160.418 62.412C141.778 92.932 114.91 136.9 96.24 167.46M169.8 47.05l-14.502 12.234 10.24 6.255zm-64.218 176.152c18.64 30.52 45.508 74.488 64.178 105.048M96.2 207.84l4.261 18.489 10.242-6.255z" style="stroke:#ffaf37;stroke-width:2"/><g fill="none"><path d="M259.036 223.114c-19.03 30.52-46.496 74.576-65.556 105.136" style="stroke:#ffaf37;stroke-width:2"/><path d="m268.56 207.84-14.615 12.1 10.183 6.349z" style="stroke:#ffaf37;stroke-width:2"/></g><path fill="none" d="M202.964 62.324c19.03 30.52 46.496 74.576 65.556 105.136M193.44 47.05l4.432 18.449 10.183-6.35z" style="stroke:#ffaf37;stroke-width:2"/></svg>
